assets/icons/qvision/timeline.svg

<svg xmlns="http://www.w3.org/2000/svg" enable-background="new 0 0 24 24" height="24" viewBox="0 0 24 24" width="24"><g><rect fill="none" height="24" width="24"/></g><g><g><g><path d="M23,8c0,1.1-0.9,2-2,2c-0.18,0-0.35-0.02-0.51-0.07l-3.56,3.55C16.98,13.64,17,13.82,17,14c0,1.1-0.9,2-2,2s-2-0.9-2-2 c0-0.18,0.02-0.36,0.07-0.52l-2.55-2.55C10.36,10.98,10.18,11,10,11s-0.36-0.02-0.52-0.07l-4.55,4.56C4.98,15.65,5,15.82,5,16 c0,1.1-0.9,2-2,2s-2-0.9-2-2s0.9-2,2-2c0.18,0,0.35,0.02,0.51,0.07l4.56-4.55C8.02,9.36,8,9.18,8,9c0-1.1,0.9-2,2-2s2,0.9,2,2 c0,0.18-0.02,0.36-0.07,0.52l2.55,2.55C14.64,12.02,14.82,12,15,12s0.36,0.02,0.52,0.07l3.55-3.56C19.02,8.35,19,8.18,19,8 c0-1.1,0.9-2,2-2S23,6.9,23,8z"/></g></g></g></svg>

<svg width="24" height="24" viewBox="0 0 24 24" fill="none" xmlns="http://www.w3.org/2000/svg">
<g clip-path="url(#clip0_147_4885)">
<path d="M23 8C23 9.1 22.1 10 21 10C20.82 10 20.65 9.98 20.49 9.93L16.93 13.48C16.98 13.64 17 13.82 17 14C17 15.1 16.1 16 15 16C13.9 16 13 15.1 13 14C13 13.82 13.02 13.64 13.07 13.48L10.52 10.93C10.36 10.98 10.18 11 10 11C9.82 11 9.64 10.98 9.48 10.93L4.93 15.49C4.98 15.65 5 15.82 5 16C5 17.1 4.1 18 3 18C1.9 18 1 17.1 1 16C1 14.9 1.9 14 3 14C3.18 14 3.35 14.02 3.51 14.07L8.07 9.52C8.02 9.36 8 9.18 8 9C8 7.9 8.9 7 10 7C11.1 7 12 7.9 12 9C12 9.18 11.98 9.36 11.93 9.52L14.48 12.07C14.64 12.02 14.82 12 15 12C15.18 12 15.36 12.02 15.52 12.07L19.07 8.51C19.02 8.35 19 8.18 19 8C19 6.9 19.9 6 21 6C22.1 6 23 6.9 23 8Z" fill="#323232"/>
</g>
<defs>
<clipPath id="clip0_147_4885">
<rect width="24" height="24" fill="white"/>
</clipPath>
</defs>
</svg>
